X:363
T:White Cockade #2, The
C:Joe Buchanan's Scottish Tome - Page 211.1
I:211 1
Z:Carl Allison
U:T=!tenuto!
L:1/8
M:C
R:March
L:1/8
M:4/4
K:G
G/A/ | BB/d/ (c/B/)A/G/ | BB Bg | dB/d/ (c/B/)A/G/ | BTuA TAG/A/ |
B/G/B/d/ (c/B/)A/G/ | Bd g>a | (b/a/)g/f/ (a/g/)f/e/ | dTB TB :|
B/c/ | dB gB | dd (d>e) | dB gf/g/ | aTG TGG/A/ |
B/G/B/d/ c/B/A/G/ | Bd g>a | (b/a/)g/f/ (a/g/)f/e/ | dTB TB :|

